X: 231
P: Longways for as many as will.
M: 6/4
L: 1/8
K: Em
V: 1
[|\
[| dcBAB2 E2c2E2 | G4B2 B2G2E2 | dcBAB2 E2B2E2 |\
[| d4g2 g2d2B2 | G4B2 B2G2E2 | d2g2f2 g2d2B2 | F4A2 A2F2D2 |\
d2g2f2 g2d2B2 | G4B2 B2G2B2 | c3de2 d2B2G2 | F4A2 A2F2D2 |]
V: 2 clef=bass middle=d
[| e6 E6 | e6 E6 | e6 E6 | d6 D6 | e6 E6 | e6 E6 | e6 g6 | d6 D6 |]
[| g6 e6 | e6 E6 | g6 e6 | d6 D6 | g6 e6 | e6 E6 | e6 g6 | d6 D6 |]
[| g6 G6 | e6 E6 | g6 G6 | d6 D6 | g6 G6 | e6 E6 | e6 g6 | d6 D6 |]

